X:213
T: WILL NUN SCHLAFEN GEHEN
N: F0361
O: Europa, Mitteleuropa, Deutschland
R: Jugend - Lied, Tageszeiten, Abend, religioes
M: 6/8
L: 1/16
K: E
 | G4G2F3GF2 | E6G6 |
F4F2B4A2 | G4z8 |
A4A2c3BA2 | B6G4
G2 | F3GA2D4F2 | E4z8

@@@ Tune index: 5644
